X:5
T:Wild Rumour, The
R:jig
C:Henrik Norbeck
H:May 1992 (1st part), January 1994 (2nd part)
M:6/8
K:D
FAA GAA|FAA GED|FAA GAA|def edB|~A3 GAA|FAA GED|~G3 AGE|1 GED D2E:|2 GED D2e||
|:fdB BAB|gfg afe|fdB BAB|gfg ecA|fdB BAB|gfg afe|dfe dBA|1 Bdc d2e:|2 Bdc d2A||

